X:4028
T:Marsden's Hornpipe
O:england
M:3/2
L:1/8
K:D
P:1
d3 A FGAF AFED | FGAF A2 f2 gfed | BGFE cdec BGFE | GABG B2 e2 cdec ||
P:2
dAde fefe d2 D2| F2 A2 A2 d2 c2 B2|dBef g2 fe f2 ed|G2 B2 E2 cd edcB||
P:3
AGFE DEFG AGFE | FGAF A2 d2 c2 BA | BAGF EFGA BGFE | GABG B2 e2 B2 c2||
P:4
d3 e fefe d3 A | F2 A2 A2 d2 c2 B2| e3 f gfgf e2 E2| GA B2 cd e2 fedc||
P:5
f2 ed e2 dc d2 D2|FGAF A2 d2 c2 B2| g2 fe f2 ed e2 E2|GA B2 cd e2 c3 B||
P:6
F2 A4 F2 D4 | F2 A4 d2 c2 BA | G2 B4 G2 E3 F | G3 A BABc d2 cB||
P:7
F2 A2 E2 G2 D2 F2 | F2 A4 d2 c2 BA| G2 B2 F2 A2 B2 E2 | G2 B4 cd edcB||
P:8
d2 D2 FGAF d2 D2 | FGAF A2 d2 c2 d2 | e2 E2 GABG e2 E2 | GABG B2 e2 c2 Bc||
P:9
dcBA dcBA d2 D2 | F2 A4 d2 c2 d2 | edcB edcB e2 E2 | GA B4 e2 B2 c2 ||
P:10
d2 de f2 ed e2 dc | Bc d2 A2 d2 c2 B2 | e2 ef g2 fe f2 ed | cd e2 B2 e2 B2 c2 ||
P:11
f4 e3 f d4 | F2 A4 d2 c3 B| g3 a f3 g e2 E2 | G2 B4 d2 c2 B2||
P:12
a2 g2 f2 e2 d2 D2 | F2 A4 d2 c3 B |b2 a2 g2 f2 e2 E2 | G2 B4 d2 c2 B2||
P:13
f2 a2 e2 f2 d2 f2 | F2 A2 D2 d2 c3 B | g2 b2 f2 a2 e2 E2 | G2 B4 d2 c3 B||
P:14
dcBA FGAF AFED | FGAF D2 d2 c3 f | edcB cdec BGFE | G2 B4 d2 c3 B||
P:15
F2 A2 E2 G2 D3 F|D2 F2 D2 F2 D2 F2|F2 B2 A2 c2 B2 E2| G2 B4 d2 c3 B||
P:16
dcBA BAGF GFED|FGAF A2 f2 e3 f|edcB cBAG AGFE | G2 B4 d2 c3 B||
P:17
d2 f2 d2 a2 d2 D2|F2 A2 D2 d2 c3 d|e2 g2 e2 b2 e2 E2|G2 B2 G2 e2 c3 B||
P:18
gfed cdec d2 D2 | F2 A4 d2 c2 B2 | g2 fe ^defd e2 E2 G2 B4 =d2 c2 B2|]


